X:75
T:India Bill. THO5.075, The
M:6/8
L:1/8
B:Thompson's Complete Collection of 200 Favourite Dances Vol.5
F:https://www.libraryofdance.org/manuals/1780c-Thompson-Compleat-5.pdf
Z:vmp. Peter Dunk 2024
Q:3/8=100
K:G
d|ded dBG|gfe d2d|ded dBG|AFD D2d|
ded dBG|gfe fed|AB^c dfa|{a/}gfe d2:|
|:d|ded dBG|=fe^d e2e|e^fe e^cA|gfe f2f|
gdb afd|ecg fdB|cAe dBG|{B/}AGF G2:|
W:
W:Turn right hands half round, left hands back again ./.
W:Lead down the middle, up again to the top ./:
W:1st & 2nd Couples Promenade round :/.
W:La Pousett :/:

